style-guide/assets/wds-icons-map.svg

<svg xmlns="http://www.w3.org/2000/svg" xmlns:xlink="http://www.w3.org/1999/xlink" width="24" height="24" viewBox="0 0 24 24">
  <defs>
    <path id="map-a" d="M3,5.65920793 L3,20.4832079 L8,18.3412079 L8,3.51620793 L3,5.65920793 Z M10,18.3412079 L15,20.4832079 L15,5.65920793 L10,3.51620793 L10,18.3412079 Z M17,5.65920793 L17,20.4832079 L22,18.3412079 L22,3.51620793 L17,5.65920793 Z M16,23.0002079 C15.903,23.0002079 15.805,22.9862079 15.71,22.9572079 L15.709,22.9572079 C15.672,22.9452079 15.637,22.9322079 15.602,22.9182079 L9,20.0882079 L2.394,22.9192079 C2.084,23.0512079 1.729,23.0192079 1.45,22.8352079 C1.169,22.6502079 1,22.3362079 1,22.0002079 L1,5.00020793 C1,4.59920793 1.238,4.23820793 1.606,4.08120793 L8.603,1.08220793 C8.632,1.07020793 8.662,1.05820793 8.691,1.04920793 C8.691,1.04920793 8.692,1.04920793 8.694,1.04820793 L8.695,1.04820793 L8.695,1.04720793 C8.795,1.01520793 8.897,1.00020793 9,1.00020793 C9.097,1.00020793 9.195,1.01320793 9.29,1.04320793 L9.291,1.04320793 C9.328,1.05520793 9.363,1.06720793 9.398,1.08220793 L16,3.91220793 L22.606,1.08120793 C22.916,0.948207927 23.27,0.980207927 23.55,1.16520793 C23.831,1.34920793 24,1.66420793 24,2.00020793 L24,19.0002079 C24,19.4002079 23.762,19.7622079 23.394,19.9192079 L16.397,22.9182079 C16.368,22.9302079 16.338,22.9412079 16.309,22.9512079 C16.309,22.9512079 16.308,22.9512079 16.306,22.9522079 L16.305,22.9522079 L16.305,22.9532079 C16.205,22.9842079 16.103,23.0002079 16,23.0002079 Z"/>
  </defs>
  <use fill-rule="evenodd" xlink:href="#map-a"/>
</svg>

<svg viewBox="0 0 24 24" xmlns="http://www.w3.org/2000/svg">
  <path d="M3 5.66v14.823l5-2.142V3.516L3 5.66zm7 12.681l5 2.142V5.66l-5-2.143v14.825zM17 5.66v14.824l5-2.142V3.516L17 5.66zM16 23a.994.994 0 0 1-.29-.043h-.001a1.687 1.687 0 0 1-.107-.039L9 20.088 2.394 22.92A1.002 1.002 0 0 1 1 22V5c0-.4.238-.762.606-.919l6.997-2.999c.029-.012.059-.024.088-.033h.004v-.002a.995.995 0 0 1 .595-.004h.001a.979.979 0 0 1 .107.04L16 3.912l6.606-2.832A.999.999 0 0 1 24 2v17c0 .4-.238.762-.606.92l-6.997 2.998a1.573 1.573 0 0 1-.088.033l-.003.001h-.001v.001c-.1.031-.202.047-.305.047z"/>
</svg>
